X: 6792
T: Character's
R: polka
M: 2/4
K: Amajor
cB/c/ ec|BA F2|B2 BA/B/|cB c/d/e|c2 cB/c/|ec BA|fa ec|1 B2 B2:|2 Be f2||
a2 c2|cB B2|FB BA/B/|cB B/A/F|E2 E>F|AB ce|fa ec|1 B2 B2:|2 Be f2||

